badamchi.safa/img/icon/photo.svg

<?xml version="1.0" encoding="utf-8"?>
<svg xmlns="http://www.w3.org/2000/svg" viewBox="0 0 48 48" fill="#323232"><path d="M 18.679688 5 C 17.117033 5 15.660832 5.8136656 14.84375 7.1464844 L 13.091797 10 L 10.5 10 C 6.9280619 10 4 12.928062 4 16.5 L 4 31.5 C 4 35.071938 6.9280619 38 10.5 38 L 32.5 38 C 36.071938 38 39 35.071938 39 31.5 L 39 16.5 C 39 12.928062 36.071938 10 32.5 10 L 29.849609 10 L 28.160156 7.1855469 C 27.348092 5.8311073 25.879449 5 24.300781 5 L 18.679688 5 z M 18.679688 8 L 24.300781 8 C 24.830113 8 25.315955 8.2749552 25.587891 8.7285156 L 27.712891 12.271484 A 1.50015 1.50015 0 0 0 29 13 L 32.5 13 C 34.450062 13 36 14.549938 36 16.5 L 36 31.5 C 36 33.450062 34.450062 35 32.5 35 L 10.5 35 C 8.5499381 35 7 33.450062 7 31.5 L 7 16.5 C 7 14.549938 8.5499381 13 10.5 13 L 13.931641 13 A 1.50015 1.50015 0 0 0 15.210938 12.285156 L 17.400391 8.7148438 C 17.673308 8.2696625 18.156341 8 18.679688 8 z M 21.5 16 C 17.37563 16 14 19.375633 14 23.5 C 14 27.624367 17.37563 31 21.5 31 C 25.62437 31 29 27.624367 29 23.5 C 29 19.375633 25.62437 16 21.5 16 z M 41 16.03125 L 41 31.5 C 41 36.187 37.187 40 32.5 40 L 10.03125 40 C 11.18825 41.801 13.205 43 15.5 43 L 32.5 43 C 38.841 43 44 37.841 44 31.5 L 44 21.5 C 44 19.205 42.801 17.18725 41 16.03125 z M 21.5 19 C 24.003051 19 26 20.99695 26 23.5 C 26 26.00305 24.003051 28 21.5 28 C 18.996949 28 17 26.00305 17 23.5 C 17 20.99695 18.996949 19 21.5 19 z" fill="#323232"/></svg>

<?xml version="1.0" encoding="utf-8"?>
<!-- Generator: Adobe Illustrator 25.0.1, SVG Export Plug-In . SVG Version: 6.00 Build 0)  -->
<svg version="1.1" id="Layer_1" xmlns="http://www.w3.org/2000/svg" xmlns:xlink="http://www.w3.org/1999/xlink" x="0px" y="0px"
	 viewBox="0 0 48 48" style="enable-background:new 0 0 48 48;" xml:space="preserve">
<style type="text/css">
	.st0{fill:#FFFFFF;}
</style>
<path class="st0" d="M18.7,5c-1.6,0-3,0.8-3.8,2.1L13.1,10h-2.6C6.9,10,4,12.9,4,16.5v15c0,3.6,2.9,6.5,6.5,6.5h22
	c3.6,0,6.5-2.9,6.5-6.5v-15c0-3.6-2.9-6.5-6.5-6.5h-2.7l-1.7-2.8C27.3,5.8,25.9,5,24.3,5H18.7z M18.7,8h5.6c0.5,0,1,0.3,1.3,0.7
	l2.1,3.5C28,12.7,28.5,13,29,13h3.5c2,0,3.5,1.5,3.5,3.5v15c0,2-1.5,3.5-3.5,3.5h-22c-2,0-3.5-1.5-3.5-3.5v-15c0-2,1.5-3.5,3.5-3.5
	h3.4c0.5,0,1-0.3,1.3-0.7l2.2-3.6C17.7,8.3,18.2,8,18.7,8z M21.5,16c-4.1,0-7.5,3.4-7.5,7.5s3.4,7.5,7.5,7.5s7.5-3.4,7.5-7.5
	S25.6,16,21.5,16z M41,16v15.5c0,4.7-3.8,8.5-8.5,8.5H10c1.2,1.8,3.2,3,5.5,3h17C38.8,43,44,37.8,44,31.5v-10
	C44,19.2,42.8,17.2,41,16z M21.5,19c2.5,0,4.5,2,4.5,4.5S24,28,21.5,28S17,26,17,23.5S19,19,21.5,19z"/>
</svg>
